X:27913
T:Lord McDonald's 27913
N:tune id: 507; setting id: 27913
Z:jakethepeg
S:thesession.org
R:reel
M:4/4
K:Amixolydian
c|Aeef ecac|ccac fBBc|Aeef ecac|BcdB cAAe:|
AAcA BAcA|AAcA BGGe|AAcA BAcA|efed cAAe|
AAcA BAcA|AAcA BGGa|edcB c2 BA|AAAB cAAe||


